X: 6825
T: Charlie Harris's
R: polka
M: 2/4
K: Dmajor
|B2 Bc|dB Bd|cA Ac|d/c/B/A/ BF|
B2 Bc|dB B2|ef/e/ dc|BA B2:|
fe df|ec cd|ef/e/ dc|Bc dB|
fe df|ec cd|ef/e/ dc|BA B2:|

